la/bowling-ball-solid.svg

<svg xmlns="http://www.w3.org/2000/svg" viewBox="0 0 32 32" height="1em" width="1em">
  <path d="M16 3C8.832 3 3 8.832 3 16s5.832 13 13 13 13-5.832 13-13S23.168 3 16 3zm0 2c6.065 0 11 4.935 11 11s-4.935 11-11 11S5 22.065 5 16 9.935 5 16 5zm-1.5 4a1.5 1.5 0 0 0 0 3 1.5 1.5 0 0 0 0-3zm-4 4a1.5 1.5 0 0 0 0 3 1.5 1.5 0 0 0 0-3zm5 1a1.5 1.5 0 0 0 0 3 1.5 1.5 0 0 0 0-3z"/>
</svg>

<svg xmlns="http://www.w3.org/2000/svg" viewBox="0 0 32 32" height="1em" width="1em">
  <path d="M 16 3 C 8.832 3 3 8.832 3 16 C 3 23.168 8.832 29 16 29 C 23.168 29 29 23.168 29 16 C 29 8.832 23.168 3 16 3 z M 16 5 C 22.065 5 27 9.935 27 16 C 27 22.065 22.065 27 16 27 C 9.935 27 5 22.065 5 16 C 5 9.935 9.935 5 16 5 z M 14.5 9 A 1.5 1.5 0 0 0 14.5 12 A 1.5 1.5 0 0 0 14.5 9 z M 10.5 13 A 1.5 1.5 0 0 0 10.5 16 A 1.5 1.5 0 0 0 10.5 13 z M 15.5 14 A 1.5 1.5 0 0 0 15.5 17 A 1.5 1.5 0 0 0 15.5 14 z"/>
</svg>
